modules/feathericon/icons/user-plus.svg

<?xml version="1.0" encoding="UTF-8"?>
<svg width="24px" height="24px" viewBox="0 0 24 24" version="1.1" xmlns="http://www.w3.org/2000/svg" xmlns:xlink="http://www.w3.org/1999/xlink">
    <!-- Generator: sketchtool 52.2 (67145) - http://www.bohemiancoding.com/sketch -->
    <title>user-plus</title>
    <desc>Created with sketchtool.</desc>
    <g id="web-app" stroke="none" stroke-width="1" fill="none" fill-rule="evenodd">
        <g id="user-plus" fill="#000000">
            <path d="M12,15 C15.1858467,15 18.0454815,15.5712647 20,18.0625268 C20,18.7758847 20,19.4217091 20,20 C9.33333333,20 4,20 4,20 C4,20 4,19.1325637 4,18.0625268 C5.95451855,15.5712647 8.81415326,15 12,15 Z M12,12 C9.790861,12 8,10.209139 8,8 C8,5.790861 9.790861,4 12,4 C14.209139,4 16,5.790861 16,8 C16,10.209139 14.209139,12 12,12 Z M20,14 C20,14.5522847 19.5522847,15 19,15 C18.4477153,15 18,14.5522847 18,14 L18,13 L17,13 C16.4477153,13 16,12.5522847 16,12 C16,11.4477153 16.4477153,11 17,11 L18,11 L18,10 C18,9.44771525 18.4477153,9 19,9 C19.5522847,9 20,9.44771525 20,10 L20,11 L21,11 C21.5522847,11 22,11.4477153 22,12 C22,12.5522847 21.5522847,13 21,13 L20,13 L20,14 Z" id="Shape"></path>
        </g>
    </g>
</svg>

<svg width="24" height="24" viewBox="0 0 24 24" xmlns="http://www.w3.org/2000/svg"><path d="M12 15c3.186 0 6.045.571 8 3.063V20H4v-1.937C5.955 15.57 8.814 15 12 15zm0-3a4 4 0 1 1 0-8 4 4 0 0 1 0 8zm8 2a1 1 0 0 1-2 0v-1h-1a1 1 0 0 1 0-2h1v-1a1 1 0 0 1 2 0v1h1a1 1 0 0 1 0 2h-1v1z" fill="#000" fill-rule="evenodd"/></svg>
